assets/svg/icons/android.svg

<?xml version="1.0" encoding="UTF-8" standalone="no"?>
<svg
   xmlns:dc="http://purl.org/dc/elements/1.1/"
   xmlns:cc="http://creativecommons.org/ns#"
   xmlns:rdf="http://www.w3.org/1999/02/22-rdf-syntax-ns#"
   xmlns:svg="http://www.w3.org/2000/svg"
   xmlns="http://www.w3.org/2000/svg"
   xmlns:sodipodi="http://sodipodi.sourceforge.net/DTD/sodipodi-0.dtd"
   xmlns:inkscape="http://www.inkscape.org/namespaces/inkscape"
   width="32"
   height="32"
   version="1.1"
   viewBox="0 0 8.4666667 8.4666671"
   id="svg371"
   sodipodi:docname="android.svg"
   inkscape:version="1.0.2 (e86c870879, 2021-01-15)">
  <metadata
     id="metadata375">
    <rdf:RDF>
      <cc:Work
         rdf:about="">
        <dc:format>image/svg+xml</dc:format>
        <dc:type
           rdf:resource="http://purl.org/dc/dcmitype/StillImage" />
        <dc:title />
      </cc:Work>
    </rdf:RDF>
  </metadata>
  <sodipodi:namedview
     inkscape:snap-bbox-edge-midpoints="true"
     inkscape:bbox-nodes="true"
     inkscape:snap-bbox="true"
     pagecolor="#ffffff"
     bordercolor="#666666"
     borderopacity="1"
     objecttolerance="10"
     gridtolerance="10"
     guidetolerance="10"
     inkscape:pageopacity="0"
     inkscape:pageshadow="2"
     inkscape:window-width="1920"
     inkscape:window-height="1016"
     id="namedview373"
     showgrid="false"
     inkscape:zoom="11.313709"
     inkscape:cx="22.052318"
     inkscape:cy="16.884584"
     inkscape:window-x="1920"
     inkscape:window-y="27"
     inkscape:window-maximized="1"
     inkscape:current-layer="svg371"
     inkscape:document-rotation="0">
    <inkscape:grid
       id="grid1162"
       type="xygrid" />
  </sodipodi:namedview>
  <defs
     id="defs37">
    <style
       id="current-color-scheme"
       type="text/css">.ColorScheme-Text { color:#565656; } .ColorScheme-Highlight { color:#5294e2; }</style>
    <style
       type="text/css"
       id="style13">.ColorScheme-Text { color:#565656; } .ColorScheme-Highlight { color:#5294e2; }</style>
    <style
       type="text/css"
       id="style15">.ColorScheme-Text { color:#565656; } .ColorScheme-Highlight { color:#5294e2; }</style>
    <style
       type="text/css"
       id="style17">.ColorScheme-Text { color:#565656; } .ColorScheme-Highlight { color:#5294e2; }</style>
    <style
       type="text/css"
       id="style19">.ColorScheme-Text { color:#565656; } .ColorScheme-Highlight { color:#5294e2; }</style>
    <style
       type="text/css"
       id="style21">.ColorScheme-Text { color:#565656; } .ColorScheme-Highlight { color:#5294e2; }</style>
    <style
       type="text/css"
       id="style23">.ColorScheme-Text { color:#565656; } .ColorScheme-Highlight { color:#5294e2; }</style>
    <style
       type="text/css"
       id="style25">.ColorScheme-Text { color:#565656; } .ColorScheme-Highlight { color:#5294e2; }</style>
    <style
       type="text/css"
       id="style27">.ColorScheme-Text { color:#565656; } .ColorScheme-Highlight { color:#5294e2; }</style>
    <style
       type="text/css"
       id="style29" />
    <style
       type="text/css"
       id="style31" />
    <style
       type="text/css"
       id="style33">.ColorScheme-Text { color:#565656; } .ColorScheme-Highlight { color:#5294e2; }</style>
    <style
       type="text/css"
       id="style35">.ColorScheme-Text { color:#565656; } .ColorScheme-Highlight { color:#5294e2; }</style>
  </defs>
  <g
     id="g886">
    <circle
       style="fill:#a4c639;fill-opacity:1;stroke-width:0.264583"
       id="path79"
       cx="4.2333336"
       cy="4.2333336"
       r="4.2333336" />
    <g
       id="g942">
      <path
         id="rect8719-3-2-7-4-3"
         style="fill:#ffffff;stroke:none;stroke-width:0.0291042;stroke-miterlimit:4;stroke-dasharray:none;image-rendering:auto"
         d="m 2.3595465,2.8142973 c -0.00132,0.015637 -0.00265,0.031533 -0.00265,0.047543 v 2.6835551 c 0,0.2886101 0.2280073,0.5208984 0.5115983,0.5208984 h 1.3648347 1.3647738 c 0.283591,0 0.5115983,-0.2322856 0.5115983,-0.5208984 V 2.8618403 c 0,-0.016007 -0.00106,-0.031914 -0.00265,-0.047543 H 4.2333337 Z" />
      <g
         id="g1287"
         transform="translate(-35.983334,-57.150003)">
        <path
           id="c-4-14-6-4-9"
           style="fill:#ffffff;stroke:none;stroke-width:0.0291042;stroke-miterlimit:4;stroke-dasharray:none;image-rendering:auto"
           d="m 39.285298,62.093964 c 0.228732,0 0.412874,0.184144 0.412874,0.412879 v 1.771167 c 0,0.228735 -0.184142,0.41288 -0.412874,0.41288 -0.228733,0 -0.412875,-0.184145 -0.412875,-0.41288 v -1.771167 c 0,-0.228735 0.184142,-0.412879 0.412875,-0.412879 z" />
        <path
           id="c-4-9-2-9-2-9"
           style="fill:#ffffff;stroke:none;stroke-width:0.0291042;stroke-miterlimit:4;stroke-dasharray:none;image-rendering:auto"
           d="m 37.676772,60.203353 c 0.228732,0 0.412874,0.184144 0.412874,0.412883 v 1.771166 c 0,0.228735 -0.184142,0.41288 -0.412874,0.41288 -0.228733,0 -0.412875,-0.184145 -0.412875,-0.41288 v -1.771166 c 0,-0.228739 0.184142,-0.412883 0.412875,-0.412883 z" />
        <path
           id="path1226"
           style="fill:#ffffff;stroke:none;stroke-width:0.0291042;stroke-miterlimit:4;stroke-dasharray:none;image-rendering:auto"
           d="m 41.148038,62.093964 c -0.228732,0 -0.412874,0.184144 -0.412874,0.412879 v 1.771167 c 0,0.228735 0.184142,0.41288 0.412874,0.41288 0.228733,0 0.412875,-0.184145 0.412875,-0.41288 v -1.771167 c 0,-0.228735 -0.184142,-0.412879 -0.412875,-0.412879 z" />
        <path
           id="path1230"
           style="fill:#ffffff;stroke:none;stroke-width:0.0291042;stroke-miterlimit:4;stroke-dasharray:none;image-rendering:auto"
           d="m 42.756564,60.203353 c -0.228732,0 -0.412874,0.184144 -0.412874,0.412883 v 1.771166 c 0,0.228735 0.184142,0.41288 0.412874,0.41288 0.228733,0 0.412875,-0.184145 0.412875,-0.41288 v -1.771166 c 0,-0.228739 -0.184142,-0.412883 -0.412875,-0.412883 z" />
      </g>
      <g
         id="g929">
        <path
           id="path903"
           style="fill:#ffffff;stroke:none;stroke-width:5.2619;stroke-linecap:round;paint-order:stroke markers fill"
           d="M 16,3.5449219 A 7.0919998,7.0919998 0 0 0 8.9414062,9.9667969 H 23.060547 A 7.0919998,7.0919998 0 0 0 16,3.5449219 Z m -2.865234,2.8945312 a 0.81499999,0.81499999 0 0 1 0.816406,0.8164063 0.81499999,0.81499999 0 0 1 -0.816406,0.8144531 0.81499999,0.81499999 0 0 1 -0.814454,-0.8144531 0.81499999,0.81499999 0 0 1 0.814454,-0.8164063 z m 5.730468,0 a 0.81499999,0.81499999 0 0 1 0.814454,0.8164063 0.81499999,0.81499999 0 0 1 -0.814454,0.8144531 0.81499999,0.81499999 0 0 1 -0.816406,-0.8144531 0.81499999,0.81499999 0 0 1 0.816406,-0.8164063 z"
           transform="scale(0.26458334)" />
        <g
           id="g923">
          <rect
             style="fill:#ffffff;stroke:none;stroke-width:0.138076;stroke-linecap:round;paint-order:stroke markers fill"
             id="rect915"
             width="1.0583334"
             height="0.13229167"
             x="2.0001957"
             y="-1.7635897"
             ry="0.066145837"
             rx="0"
             transform="rotate(60)" />
          <rect
             style="fill:#ffffff;stroke:none;stroke-width:0.138076;stroke-linecap:round;paint-order:stroke markers fill"
             id="rect917"
             width="1.0583334"
             height="0.13229167"
             x="-2.2331376"
             y="5.568759"
             ry="0.066145837"
             rx="0"
             transform="matrix(-0.5,0.8660254,0.8660254,0.5,0,0)" />
        </g>
      </g>
    </g>
  </g>
</svg>

<?xml version="1.0" encoding="UTF-8" standalone="no"?>
<svg
   xmlns:dc="http://purl.org/dc/elements/1.1/"
   xmlns:cc="http://creativecommons.org/ns#"
   xmlns:rdf="http://www.w3.org/1999/02/22-rdf-syntax-ns#"
   xmlns:svg="http://www.w3.org/2000/svg"
   xmlns="http://www.w3.org/2000/svg"
   xmlns:sodipodi="http://sodipodi.sourceforge.net/DTD/sodipodi-0.dtd"
   xmlns:inkscape="http://www.inkscape.org/namespaces/inkscape"
   width="32"
   height="32"
   version="1.1"
   viewBox="0 0 8.4666667 8.4666671"
   id="svg371"
   sodipodi:docname="android.svg"
   inkscape:version="1.0.2 (e86c870879, 2021-01-15)">
  <metadata
     id="metadata375">
    <rdf:RDF>
      <cc:Work
         rdf:about="">
        <dc:format>image/svg+xml</dc:format>
        <dc:type
           rdf:resource="http://purl.org/dc/dcmitype/StillImage" />
        <dc:title />
      </cc:Work>
    </rdf:RDF>
  </metadata>
  <sodipodi:namedview
     inkscape:snap-bbox-edge-midpoints="true"
     inkscape:bbox-nodes="true"
     inkscape:snap-bbox="true"
     pagecolor="#ffffff"
     bordercolor="#666666"
     borderopacity="1"
     objecttolerance="10"
     gridtolerance="10"
     guidetolerance="10"
     inkscape:pageopacity="0"
     inkscape:pageshadow="2"
     inkscape:window-width="1920"
     inkscape:window-height="1016"
     id="namedview373"
     showgrid="false"
     inkscape:zoom="11.313709"
     inkscape:cx="22.052318"
     inkscape:cy="16.884584"
     inkscape:window-x="1920"
     inkscape:window-y="27"
     inkscape:window-maximized="1"
     inkscape:current-layer="svg371"
     inkscape:document-rotation="0">
    <inkscape:grid
       id="grid1162"
       type="xygrid" />
  </sodipodi:namedview>
  <defs
     id="defs37">
    <style
       id="current-color-scheme"
       type="text/css">.ColorScheme-Text { color:#565656; } .ColorScheme-Highlight { color:#5294e2; }</style>
    <style
       type="text/css"
       id="style13">.ColorScheme-Text { color:#565656; } .ColorScheme-Highlight { color:#5294e2; }</style>
    <style
       type="text/css"
       id="style15">.ColorScheme-Text { color:#565656; } .ColorScheme-Highlight { color:#5294e2; }</style>
    <style
       type="text/css"
       id="style17">.ColorScheme-Text { color:#565656; } .ColorScheme-Highlight { color:#5294e2; }</style>
    <style
       type="text/css"
       id="style19">.ColorScheme-Text { color:#565656; } .ColorScheme-Highlight { color:#5294e2; }</style>
    <style
       type="text/css"
       id="style21">.ColorScheme-Text { color:#565656; } .ColorScheme-Highlight { color:#5294e2; }</style>
    <style
       type="text/css"
       id="style23">.ColorScheme-Text { color:#565656; } .ColorScheme-Highlight { color:#5294e2; }</style>
    <style
       type="text/css"
       id="style25">.ColorScheme-Text { color:#565656; } .ColorScheme-Highlight { color:#5294e2; }</style>
    <style
       type="text/css"
       id="style27">.ColorScheme-Text { color:#565656; } .ColorScheme-Highlight { color:#5294e2; }</style>
    <style
       type="text/css"
       id="style29" />
    <style
       type="text/css"
       id="style31" />
    <style
       type="text/css"
       id="style33">.ColorScheme-Text { color:#565656; } .ColorScheme-Highlight { color:#5294e2; }</style>
    <style
       type="text/css"
       id="style35">.ColorScheme-Text { color:#565656; } .ColorScheme-Highlight { color:#5294e2; }</style>
  </defs>
  <g
     id="g958">
    <g
       id="layer3"
       inkscape:label="Back"
       style="display:inline"
       transform="scale(0.26458334)">
      <circle
         style="fill:#a4c639;fill-opacity:1"
         id="path79"
         cx="16"
         cy="16"
         r="16" />
    </g>
    <g
       id="g942">
      <path
         id="rect8719-3-2-7-4-3"
         style="fill:#ffffff;stroke:none;stroke-width:0.0291042;stroke-miterlimit:4;stroke-dasharray:none;image-rendering:auto"
         d="m 2.3595465,2.8142973 c -0.00132,0.015637 -0.00265,0.031533 -0.00265,0.047543 v 2.6835551 c 0,0.2886101 0.2280073,0.5208984 0.5115983,0.5208984 h 1.3648347 1.3647738 c 0.283591,0 0.5115983,-0.2322856 0.5115983,-0.5208984 V 2.8618403 c 0,-0.016007 -0.00106,-0.031914 -0.00265,-0.047543 H 4.2333337 Z" />
      <g
         id="g1287"
         transform="translate(-35.983334,-57.150003)">
        <path
           id="c-4-14-6-4-9"
           style="fill:#ffffff;stroke:none;stroke-width:0.0291042;stroke-miterlimit:4;stroke-dasharray:none;image-rendering:auto"
           d="m 39.285298,62.093964 c 0.228732,0 0.412874,0.184144 0.412874,0.412879 v 1.771167 c 0,0.228735 -0.184142,0.41288 -0.412874,0.41288 -0.228733,0 -0.412875,-0.184145 -0.412875,-0.41288 v -1.771167 c 0,-0.228735 0.184142,-0.412879 0.412875,-0.412879 z" />
        <path
           id="c-4-9-2-9-2-9"
           style="fill:#ffffff;stroke:none;stroke-width:0.0291042;stroke-miterlimit:4;stroke-dasharray:none;image-rendering:auto"
           d="m 37.676772,60.203353 c 0.228732,0 0.412874,0.184144 0.412874,0.412883 v 1.771166 c 0,0.228735 -0.184142,0.41288 -0.412874,0.41288 -0.228733,0 -0.412875,-0.184145 -0.412875,-0.41288 v -1.771166 c 0,-0.228739 0.184142,-0.412883 0.412875,-0.412883 z" />
        <path
           id="path1226"
           style="fill:#ffffff;stroke:none;stroke-width:0.0291042;stroke-miterlimit:4;stroke-dasharray:none;image-rendering:auto"
           d="m 41.148038,62.093964 c -0.228732,0 -0.412874,0.184144 -0.412874,0.412879 v 1.771167 c 0,0.228735 0.184142,0.41288 0.412874,0.41288 0.228733,0 0.412875,-0.184145 0.412875,-0.41288 v -1.771167 c 0,-0.228735 -0.184142,-0.412879 -0.412875,-0.412879 z" />
        <path
           id="path1230"
           style="fill:#ffffff;stroke:none;stroke-width:0.0291042;stroke-miterlimit:4;stroke-dasharray:none;image-rendering:auto"
           d="m 42.756564,60.203353 c -0.228732,0 -0.412874,0.184144 -0.412874,0.412883 v 1.771166 c 0,0.228735 0.184142,0.41288 0.412874,0.41288 0.228733,0 0.412875,-0.184145 0.412875,-0.41288 v -1.771166 c 0,-0.228739 -0.184142,-0.412883 -0.412875,-0.412883 z" />
      </g>
      <g
         id="g929">
        <path
           id="path903"
           style="fill:#ffffff;stroke:none;stroke-width:5.2619;stroke-linecap:round;paint-order:stroke markers fill"
           d="M 16 3.5449219 A 7.0919998 7.0919998 0 0 0 8.9414062 9.9667969 L 23.060547 9.9667969 A 7.0919998 7.0919998 0 0 0 16 3.5449219 z M 13.134766 6.4394531 A 0.81499999 0.81499999 0 0 1 13.951172 7.2558594 A 0.81499999 0.81499999 0 0 1 13.134766 8.0703125 A 0.81499999 0.81499999 0 0 1 12.320312 7.2558594 A 0.81499999 0.81499999 0 0 1 13.134766 6.4394531 z M 18.865234 6.4394531 A -0.81499999 0.81499999 0 0 1 19.679688 7.2558594 A -0.81499999 0.81499999 0 0 1 18.865234 8.0703125 A -0.81499999 0.81499999 0 0 1 18.048828 7.2558594 A -0.81499999 0.81499999 0 0 1 18.865234 6.4394531 z "
           transform="scale(0.26458334)" />
        <g
           id="g923">
          <rect
             style="fill:#ffffff;stroke:none;stroke-width:0.138076;stroke-linecap:round;paint-order:stroke markers fill"
             id="rect915"
             width="1.0583334"
             height="0.13229167"
             x="2.0001957"
             y="-1.7635897"
             ry="0.066145837"
             rx="0"
             transform="rotate(60)" />
          <rect
             style="fill:#ffffff;stroke:none;stroke-width:0.138076;stroke-linecap:round;paint-order:stroke markers fill"
             id="rect917"
             width="1.0583334"
             height="0.13229167"
             x="-2.2331376"
             y="5.568759"
             ry="0.066145837"
             rx="0"
             transform="matrix(-0.5,0.8660254,0.8660254,0.5,0,0)" />
        </g>
      </g>
    </g>
  </g>
</svg>
